src/assets/icons/hand-wave.svg

<svg width="100%" height="100%" viewBox="0 0 430 462" fill="none" xmlns="http://www.w3.org/2000/svg">
<path d="M5 161.5L22 147L42 141L77.5 147L107 178.5L120 216L124.5 200.5L127 183L129 147L134.5 110.5L146.5 84.5L160.5 74.5H185.5L202 84.5L206.5 110.5L194 170L226 118L255 92L273.5 96L287.5 107V129L273.5 161.5L251.5 206L281 174.5L299.5 161.5L325.5 147L343.5 152.5L352.5 174.5L337 206L287.5 256L318 241.5L337 238.5L352.5 241.5L360 260L346.5 286L281 326.5L265.5 344L251.5 371.5L234.5 393L206.5 407.5L184.5 412L179 424L162.5 451.5L143 460L55 424L47 407.5L55 363.5L60 352.5L47 326.5V292.5L51.5 260L47 231L26.5 216L9 185.5L5 161.5Z" fill="#F6F6F6"/>
<path d="M112.5 0.623668C108.4 1.92367 92.4 12.1237 86.5 17.3237C78 24.8237 65.7 38.6237 60.3 46.8237C51.7 59.8237 40.5 85.2237 40.5 91.9237C40.5 95.9237 43.6 92.1237 46.6 84.4237C53.6 66.0237 63.8 50.6237 78.5 35.9237C88.4 26.0237 96 20.7237 109.9 14.2237C120.9 9.12367 121.5 8.62367 121.5 5.82367C121.5 0.723668 118.3 -1.07633 112.5 0.623668Z" fill="#444444"/>
<path d="M113.201 44.2242C102.301 48.0242 81.3009 64.2242 72.1009 75.8242C65.1009 84.7242 57.6009 97.4242 52.5009 108.924C47.3009 120.924 51.2009 120.524 57.6009 108.424C64.3009 95.7242 76.9009 80.5242 88.1009 71.6242C94.7009 66.4242 110.301 57.7242 113.101 57.7242C115.201 57.7242 120.801 54.7242 122.201 52.8242C124.801 49.4242 123.101 44.5242 119.001 43.4242C117.901 43.1242 115.301 43.4242 113.201 44.2242Z" fill="#444444"/>
<path d="M162.8 70.6209C144.7 77.3209 134 95.8209 129.1 129.221C127.6 139.321 125.1 170.321 124 192.221C123.4 203.221 123.5 204.021 124.9 202.321C125.8 201.221 126.5 199.821 126.5 199.221C126.5 198.621 127.2 193.621 128 188.121C128.8 182.721 130.3 169.221 131.4 158.221C134 133.121 135.8 122.621 139.6 111.221C145 95.1209 152.5 84.8209 162.3 80.0209C167.4 77.5209 169.1 77.2209 177.5 77.2209C187.7 77.3209 192.6 78.9209 197.2 83.9209C203.3 90.4209 204.8 102.921 201.7 121.221C199.4 134.221 197.1 142.921 189.4 166.721C179.9 196.021 177.9 204.421 180.6 203.521C181.2 203.321 186.5 193.721 192.4 182.221C212.7 142.321 224.3 123.921 237.5 110.621C247.4 100.621 253.1 97.5209 262.3 96.9209C273 96.2209 281.7 102.121 284.5 111.821C288.8 126.721 278.5 151.921 250.3 195.521C238 214.621 229.2 230.121 230.5 230.521C232.2 231.121 234.9 228.521 250.7 211.221C289.3 169.021 309.7 152.921 326.1 151.921C335.4 151.321 342.5 155.621 346 163.921C349.1 171.421 346.9 183.421 340.5 193.921C331.1 209.221 310.2 232.021 287.5 251.721C274 263.321 267.5 269.921 267.5 271.721C267.5 272.321 267.7 272.721 268 272.721C269.4 272.721 277.4 268.121 287.7 261.321C310.4 246.421 323.8 240.621 335.4 240.521C345.5 240.521 350 242.821 353.6 249.921C356.5 255.721 356.1 262.321 352.3 269.721C345.4 283.121 329.3 295.721 300 310.821C280.9 320.621 274.1 325.121 268.9 331.021C264.6 335.921 263.5 337.921 254.2 357.721C246.5 374.021 240.5 382.121 231 389.321C223.1 395.221 210.2 401.621 201 404.221C191.9 406.721 170.6 407.321 162.5 405.321C150.3 402.321 141.9 397.321 132.9 388.021L124.8 379.521L116.9 378.621C95.2 376.021 82.6 370.921 71.9 360.221C54.5 342.921 49.1 315.021 55.2 273.321C56.1 267.221 56.8 256.821 56.9 250.221C57 234.621 56.5 233.721 37 213.621C15.6 191.621 9.5 182.021 9.5 170.321C9.5 165.921 10.1 164.121 12.8 160.121C16.5 154.621 23 149.821 31.3 146.621C39.9 143.221 54.5 143.321 63.8 147.021C93.1 158.521 116.1 193.221 114.2 223.221C113.9 227.621 113 232.921 112.1 234.921C109.9 240.021 110.1 243.421 112.5 244.721C113.5 245.321 118 246.321 122.3 247.121C133.7 249.121 141.4 253.421 151.1 263.121C163.5 275.521 169.2 289.421 168.3 304.521C167.9 310.821 168 311.721 169.4 311.521C170.7 311.221 171.1 309.521 171.3 302.421C172.2 274.221 153.3 249.321 125 241.221C121.7 240.221 118.9 239.421 118.7 239.221C118.6 239.121 119.2 236.121 120.1 232.621C122.7 222.321 121.7 205.721 117.6 193.821C109.6 170.121 92.5 150.121 72 140.721C61.7 135.921 56.5 134.721 46.3 134.721C27.7 134.721 10.3 143.621 3 156.821C0.3 161.721 0 163.121 0 171.221C0 179.321 0.4 180.921 3.3 187.121C8.1 197.421 14.1 205.121 29.6 221.221C37.3 229.321 44.3 237.421 45.1 239.221C46.9 243.621 46.9 254.021 45 270.121C41.9 296.121 41.4 305.521 42.5 316.621C44.7 339.621 50.3 353.621 62.4 365.621C74.9 378.221 88.2 383.321 110.8 384.421L123.5 385.021L125.6 388.321C131.9 398.621 149.4 409.821 164.2 413.121C173.2 415.121 190.2 415.221 199.2 413.221C230.8 406.521 252.5 388.021 264.6 357.321C269.4 345.121 274.4 336.021 278 332.921C279.7 331.321 287.3 326.921 294.7 323.021C342.5 298.021 365.9 274.821 362.9 255.621C361.9 249.821 356.7 241.721 351.6 238.321C341.8 231.721 324.8 234.321 305.3 245.321C301.9 247.221 299.1 248.621 299 248.521C298.8 248.321 304.1 243.521 310.7 237.721C341.8 210.721 358.2 183.921 354.5 166.221C351.4 151.321 338.3 142.021 323.9 144.421C306.9 147.321 287.4 162.121 260.1 192.721L254.3 199.221L258.2 193.721C274.6 170.521 286.5 148.621 291.1 133.221C293.5 125.121 293.5 112.621 291.2 106.621C288.9 100.721 280.6 92.7209 274.3 90.3209C253.8 82.4209 227.6 103.521 205.2 145.721C201.4 152.821 198.5 157.121 199.8 153.721C213.6 116.721 214.9 93.4209 204.1 79.2209C202.8 77.5209 198.8 74.5209 195.3 72.7209C189.4 69.5209 188.3 69.2209 178.5 69.0209C170.1 68.7209 167 69.0209 162.8 70.6209Z" fill="#444444"/>
<path d="M386.5 194.022C386.5 194.122 389.8 197.622 393.8 201.722C413.5 221.922 425.4 264.622 418.5 290.722C416.1 299.822 416 302.622 418.1 305.522C420.3 308.722 424.1 308.422 425.9 304.922C429.9 297.122 430.5 275.822 427 259.822C423.1 241.522 413.9 220.822 404.4 208.922C398.7 201.822 386.5 191.622 386.5 194.022Z" fill="#444444"/>
<path d="M162.099 209.722C162.599 210.222 168.399 212.522 174.999 214.722C200.099 223.422 218.799 234.122 235.899 249.822C243.299 256.522 252.799 269.322 254.999 275.422C255.999 278.022 257.399 280.922 258.199 281.722C262.699 286.622 255.099 264.022 249.499 255.722C244.499 248.422 230.199 234.822 221.799 229.322C205.699 218.922 189.899 212.622 173.799 210.222C162.099 208.422 160.799 208.422 162.099 209.722Z" fill="#444444"/>
<path d="M384.5 223.221C384.5 223.521 385.6 225.921 386.9 228.521C388.2 231.221 390.1 236.021 391 239.321C393.2 247.321 394.2 270.221 392.5 276.121C391.1 281.421 391.7 284.021 394.9 285.521C396.7 286.321 397.7 286.221 399.2 285.221C400.8 284.021 401 282.421 400.9 269.521C400.8 257.021 400.5 254.121 398.2 246.421C395.2 236.721 392.6 230.921 388.8 225.921C386.7 223.121 384.5 221.721 384.5 223.221Z" fill="#444444"/>
<path d="M54.4 362.823C50.6 368.523 43.5 395.823 43.5 404.523C43.5 419.523 53 429.423 77.5 439.923C82.2 441.923 89.7 445.123 94.1 447.123C112.7 455.023 135.9 461.623 145.5 461.723C155.4 461.723 166.6 451.623 175.2 434.923C180.2 425.423 183.1 418.023 182.3 417.123C182 416.923 178.1 422.723 173.4 430.023C168.8 437.223 163.5 445.023 161.5 447.123C154.6 454.823 146.1 456.423 132.5 452.623C107.4 445.723 60.2 422.223 54.7 413.923C52 409.823 51.9 395.323 54.5 379.923C55.7 372.823 56.5 365.423 56.3 363.623L56 360.323L54.4 362.823Z" fill="#444444"/>
</svg>

<svg xmlns="http://www.w3.org/2000/svg" width="100%" height="100%" viewBox="0 0 430 462" fill="none"><path d="M5 161.5L22 147l20-6 35.5 6 29.5 31.5 13 37.5 4.5-15.5L127 183l2-36 5.5-36.5 12-26 14-10h25l16.5 10 4.5 26L194 170l32-52 29-26 18.5 4 14 11v22l-14 32.5-22 44.5 29.5-31.5 18.5-13 26-14.5 18 5.5 9 22L337 206l-49.5 50 30.5-14.5 19-3 15.5 3L360 260l-13.5 26-65.5 40.5-15.5 17.5-14 27.5-17 21.5-28 14.5-22 4.5-5.5 12-16.5 27.5L143 460l-88-36-8-16.5 8-44 5-11-13-26v-34l4.5-32.5-4.5-29-20.5-15L9 185.5l-4-24z" fill="#f6f6f6"/><path d="M112.5.624c-4.1 1.3-20.1 11.5-26 16.7-8.5 7.5-20.8 21.3-26.2 29.5-8.6 13-19.8 38.4-19.8 45.1 0 4 3.1.2 6.1-7.5 7-18.4 17.2-33.8 31.9-48.5 9.9-9.9 17.5-15.2 31.4-21.7 11-5.1 11.6-5.6 11.6-8.4 0-5.1-3.2-6.9-9-5.2zm.701 43.6c-10.9 3.8-31.9 20-41.1 31.6-7 8.9-14.5 21.6-19.6 33.1-5.2 12-1.3 11.6 5.1-.5 6.7-12.7 19.3-27.9 30.5-36.8 6.6-5.2 22.2-13.9 25-13.9 2.1 0 7.7-3 9.1-4.9 2.6-3.4.9-8.3-3.2-9.4-1.1-.3-3.7 0-5.8.8zM162.8 70.621c-18.1 6.7-28.8 25.2-33.7 58.6-1.5 10.1-4 41.1-5.1 63-.6 11-.5 11.8.9 10.1.9-1.1 1.6-2.5 1.6-3.1s.7-5.6 1.5-11.1c.8-5.4 2.3-18.9 3.4-29.9 2.6-25.1 4.4-35.6 8.2-47 5.4-16.1 12.9-26.4 22.7-31.2 5.1-2.5 6.8-2.8 15.2-2.8 10.2.1 15.1 1.7 19.7 6.7 6.1 6.5 7.6 19 4.5 37.3-2.3 13-4.6 21.7-12.3 45.5-9.5 29.3-11.5 37.7-8.8 36.8.6-.2 5.9-9.8 11.8-21.3 20.3-39.9 31.9-58.3 45.1-71.6 9.9-10 15.6-13.1 24.8-13.7 10.7-.7 19.4 5.2 22.2 14.9 4.3 14.9-6 40.1-34.2 83.7-12.3 19.1-21.1 34.6-19.8 35 1.7.6 4.4-2 20.2-19.3 38.6-42.2 59-58.3 75.4-59.3 9.3-.6 16.4 3.7 19.9 12 3.1 7.5.9 19.5-5.5 30-9.4 15.3-30.3 38.1-53 57.8-13.5 11.6-20 18.2-20 20 0 .6.2 1 .5 1 1.4 0 9.4-4.6 19.7-11.4 22.7-14.9 36.1-20.7 47.7-20.8 10.1 0 14.6 2.3 18.2 9.4 2.9 5.8 2.5 12.4-1.3 19.8-6.9 13.4-23 26-52.3 41.1-19.1 9.8-25.9 14.3-31.1 20.2-4.3 4.9-5.4 6.9-14.7 26.7-7.7 16.3-13.7 24.4-23.2 31.6-7.9 5.9-20.8 12.3-30 14.9-9.1 2.5-30.4 3.1-38.5 1.1-12.2-3-20.6-8-29.6-17.3l-8.1-8.5-7.9-.9c-21.7-2.6-34.3-7.7-45-18.4-17.4-17.3-22.8-45.2-16.7-86.9.9-6.1 1.6-16.5 1.7-23.1.1-15.6-.4-16.5-19.9-36.6-21.4-22-27.5-31.6-27.5-43.3 0-4.4.6-6.2 3.3-10.2 3.7-5.5 10.2-10.3 18.5-13.5 8.6-3.4 23.2-3.3 32.5.4 29.3 11.5 52.3 46.2 50.4 76.2-.3 4.4-1.2 9.7-2.1 11.7-2.2 5.1-2 8.5.4 9.8 1 .6 5.5 1.6 9.8 2.4 11.4 2 19.1 6.3 28.8 16 12.4 12.4 18.1 26.3 17.2 41.4-.4 6.3-.3 7.2 1.1 7 1.3-.3 1.7-2 1.9-9.1.9-28.2-18-53.1-46.3-61.2-3.3-1-6.1-1.8-6.3-2-.1-.1.5-3.1 1.4-6.6 2.6-10.3 1.6-26.9-2.5-38.8-8-23.7-25.1-43.7-45.6-53.1-10.3-4.8-15.5-6-25.7-6-18.6 0-36 8.9-43.3 22.1-2.7 4.9-3 6.3-3 14.4s.4 9.7 3.3 15.9c4.8 10.3 10.8 18 26.3 34.1 7.7 8.1 14.7 16.2 15.5 18 1.8 4.4 1.8 14.8-.1 30.9-3.1 26-3.6 35.4-2.5 46.5 2.2 23 7.8 37 19.9 49 12.5 12.6 25.8 17.7 48.4 18.8l12.7.6 2.1 3.3c6.3 10.3 23.8 21.5 38.6 24.8 9 2 26 2.1 35 .1 31.6-6.7 53.3-25.2 65.4-55.9 4.8-12.2 9.8-21.3 13.4-24.4 1.7-1.6 9.3-6 16.7-9.9 47.8-25 71.2-48.2 68.2-67.4-1-5.8-6.2-13.9-11.3-17.3-9.8-6.6-26.8-4-46.3 7-3.4 1.9-6.2 3.3-6.3 3.2-.2-.2 5.1-5 11.7-10.8 31.1-27 47.5-53.8 43.8-71.5-3.1-14.9-16.2-24.2-30.6-21.8-17 2.9-36.5 17.7-63.8 48.3l-5.8 6.5 3.9-5.5c16.4-23.2 28.3-45.1 32.9-60.5 2.4-8.1 2.4-20.6.1-26.6-2.3-5.9-10.6-13.9-16.9-16.3-20.5-7.9-46.7 13.2-69.1 55.4-3.8 7.1-6.7 11.4-5.4 8 13.8-37 15.1-60.3 4.3-74.5-1.3-1.7-5.3-4.7-8.8-6.5-5.9-3.2-7-3.5-16.8-3.7-8.4-.3-11.5 0-15.7 1.6zm223.7 123.401c0 .1 3.3 3.6 7.3 7.7 19.7 20.2 31.6 62.9 24.7 89-2.4 9.1-2.5 11.9-.4 14.8 2.2 3.2 6 2.9 7.8-.6 4-7.8 4.6-29.1 1.1-45.1-3.9-18.3-13.1-39-22.6-50.9-5.7-7.1-17.9-17.3-17.9-14.9zm-224.401 15.7c.5.5 6.3 2.8 12.9 5 25.1 8.7 43.8 19.4 60.9 35.1 7.4 6.7 16.9 19.5 19.1 25.6 1 2.6 2.4 5.5 3.2 6.3 4.5 4.9-3.1-17.7-8.7-26-5-7.3-19.3-20.9-27.7-26.4-16.1-10.4-31.9-16.7-48-19.1-11.7-1.8-13-1.8-11.7-.5zM384.5 223.221c0 .3 1.1 2.7 2.4 5.3 1.3 2.7 3.2 7.5 4.1 10.8 2.2 8 3.2 30.9 1.5 36.8-1.4 5.3-.8 7.9 2.4 9.4 1.8.8 2.8.7 4.3-.3 1.6-1.2 1.8-2.8 1.7-15.7-.1-12.5-.4-15.4-2.7-23.1-3-9.7-5.6-15.5-9.4-20.5-2.1-2.8-4.3-4.2-4.3-2.7zM54.4 362.823c-3.8 5.7-10.9 33-10.9 41.7 0 15 9.5 24.9 34 35.4l16.6 7.2c18.6 7.9 41.8 14.5 51.4 14.6 9.9 0 21.1-10.1 29.7-26.8 5-9.5 7.9-16.9 7.1-17.8-.3-.2-4.2 5.6-8.9 12.9-4.6 7.2-9.9 15-11.9 17.1-6.9 7.7-15.4 9.3-29 5.5-25.1-6.9-72.3-30.4-77.8-38.7-2.7-4.1-2.8-18.6-.2-34 1.2-7.1 2-14.5 1.8-16.3l-.3-3.3-1.6 2.5z" fill="#444"/></svg>
